packages/web-icons/svgs/nineteen.svg

<svg viewBox="0 0 48 48" xmlns="http://www.w3.org/2000/svg" class="ridi_icon"><path d="M24 48C10.7 48 0 37.3 0 24S10.7 0 24 0s24 10.7 24 24-10.7 24-24 24zm-4.8-35.7h-3.6c-.4 3.4-3.3 4.4-6.4 4.4V20h5.5v14.2h4.4l.1-21.9zm11.1-.4c-4.6 0-7.7 3.5-7.7 8 0 1.7.5 3.5 1.7 4.9 1.3 1.4 3.2 2.3 5 2.3 2.1 0 3.7-.7 4.9-2.4l.1.1c-.1 2.4-1 6.7-4.2 6.7-1.5 0-2.7-1.3-2.9-2.7H23c.5 3.9 3.3 6.1 7.1 6.1 6.2 0 8.6-6.1 8.6-11.5 0-5.7-1.8-11.5-8.4-11.5zm.1 11.8c-2.3 0-3.4-2.1-3.4-4.1 0-2 1.2-4 3.4-4s3.5 2 3.5 4.1c0 2.1-1.1 4-3.5 4z"/></svg>

<?xml version="1.0" encoding="UTF-8"?>
<svg width="48px" height="48px" viewBox="0 0 48 48" version="1.1" xmlns="http://www.w3.org/2000/svg">
  <!-- Generator: Sketch 41.2 (35397) - http://www.bohemiancoding.com/sketch -->
  <title>nineteen</title>
  <desc>Created with Sketch.</desc>
  <defs></defs>
  <g id="Page-1" stroke="none" stroke-width="1" fill="none" fill-rule="evenodd">
    <g id="nineteen" fill="#444444">
      <g id="레이어_1">
        <path d="M24,48 C10.7,48 0,37.3 0,24 C0,10.7 10.7,0 24,0 C37.3,0 48,10.7 48,24 C48,37.3 37.3,48 24,48 Z M19.2,12.3 L15.6,12.3 C15.2,15.7 12.3,16.7 9.2,16.7 L9.2,20 L14.7,20 L14.7,34.2 L19.1,34.2 L19.2,12.3 L19.2,12.3 Z M30.3,11.9 C25.7,11.9 22.6,15.4 22.6,19.9 C22.6,21.6 23.1,23.4 24.3,24.8 C25.6,26.2 27.5,27.1 29.3,27.1 C31.4,27.1 33,26.4 34.2,24.7 L34.3,24.8 C34.2,27.2 33.3,31.5 30.1,31.5 C28.6,31.5 27.4,30.2 27.2,28.8 L23,28.8 C23.5,32.7 26.3,34.9 30.1,34.9 C36.3,34.9 38.7,28.8 38.7,23.4 C38.7,17.7 36.9,11.9 30.3,11.9 Z M30.4,23.7 C28.1,23.7 27,21.6 27,19.6 C27,17.6 28.2,15.6 30.4,15.6 C32.6,15.6 33.9,17.6 33.9,19.7 C33.9,21.8 32.8,23.7 30.4,23.7 L30.4,23.7 Z" id="Shape"></path>
      </g>
    </g>
  </g>
</svg>
